X:13307
T:Polka du Couserans
C:trad
A:Arige
O:France
Z:S. Piron
M:2/4
L:1/8
Q:1/4=150
K:G
DB Bc/2B/2|DB Bc/2B/2|DA AB/2A/2|G/2A/2B/2c/2 d2|DB Bc/2B/2|dc BA|DA AB/2A/2|GBG2:|
|:DG G/2F/2G/2A/2|GF F2|DA A/2G/2A/2B/2|AG G2|DB B/2A/2B/2c/2|BAA2|E/2F/2A E/2F/2A|GB G2:|
